assets/Sweat droplets/Flat/sweat_droplets_flat.svg

<svg width="32" height="32" viewBox="0 0 32 32" fill="none" xmlns="http://www.w3.org/2000/svg">
<path d="M27.3572 21.8511C26.5799 20.358 25.3342 19.5219 23.9989 19.1237L16.4553 17.0434C15.5983 16.8045 14.811 17.5908 15.0402 18.4568L17.0931 25.8924C17.3422 26.7982 17.7906 27.6542 18.5081 28.3709C20.9097 30.7697 24.9556 30.5209 27.0184 27.6144C28.2042 25.9421 28.3138 23.6726 27.3572 21.8511Z" fill="#00A6ED"/>
<path d="M19.987 2.82362C21.4752 2.03648 23.267 1.71579 25.2208 2.29886C27.61 3.01797 29.4727 4.98096 29.8978 7.3521C30.6267 11.453 27.3569 15 23.2265 15C22.0016 15 20.8678 14.6599 19.8757 14.1157L11.7061 9.66494C10.7646 9.14989 10.7646 7.84771 11.7061 7.33267L19.987 2.82362Z" fill="#26C9FC"/>
<path d="M11.7683 23.4855C12.2186 22.0493 11.9739 20.7206 11.367 19.6264L7.89233 13.5202C7.50081 12.8266 6.49265 12.8266 6.10114 13.5202L2.67537 19.5385C2.25449 20.2712 2 21.1114 2 22.0103C2 25.0585 4.73083 27.4619 7.88254 26.9245C9.70309 26.6216 11.2202 25.2441 11.7683 23.4855Z" fill="#26C9FC"/>
<path fill-rule="evenodd" clip-rule="evenodd" d="M21 21C21 20.4477 21.4477 20 22 20C24.7614 20 27 22.2386 27 25C27 25.5523 26.5523 26 26 26C25.4477 26 25 25.5523 25 25C25 23.3431 23.6569 22 22 22C21.4477 22 21 21.5523 21 21Z" fill="#83CBFF"/>
<path d="M23 3C22.4477 3 22 3.44772 22 4C22 4.55228 22.4477 5 23 5C25.2091 5 27 6.79086 27 9C27 9.55228 27.4477 10 28 10C28.5523 10 29 9.55228 29 9C29 5.68629 26.3137 3 23 3Z" fill="#AEDDFF"/>
<path d="M11 22C11 21.4477 10.5523 21 10 21C9.44772 21 9 21.4477 9 22C9 23.1046 8.10457 24 7 24C6.44772 24 6 24.4477 6 25C6 25.5523 6.44772 26 7 26C9.20914 26 11 24.2091 11 22Z" fill="#AEDDFF"/>
</svg>

<svg xmlns="http://www.w3.org/2000/svg" width="32" height="32" fill="none"><path fill="#00A6ED" d="M27.357 21.851c-.777-1.493-2.023-2.33-3.358-2.727l-7.544-2.08c-.857-.24-1.644.547-1.415 1.413l2.053 7.435c.25.906.698 1.762 1.415 2.479a5.575 5.575 0 0 0 8.51-.757c1.186-1.672 1.296-3.941.34-5.763Z"/><path fill="#26C9FC" d="M19.987 2.824c1.488-.788 3.28-1.108 5.234-.525 2.389.719 4.252 2.682 4.677 5.053.729 4.101-2.541 7.648-6.671 7.648-1.225 0-2.36-.34-3.351-.884l-8.17-4.451a1.316 1.316 0 0 1 0-2.332l8.281-4.51ZM11.768 23.485c.45-1.436.206-2.764-.401-3.859L7.892 13.52a1.031 1.031 0 0 0-1.79 0l-3.427 6.018A4.95 4.95 0 0 0 2 22.01c0 3.048 2.73 5.452 5.883 4.914 1.82-.302 3.337-1.68 3.885-3.439Z"/><path fill="#83CBFF" fill-rule="evenodd" d="M21 21a1 1 0 0 1 1-1 5 5 0 0 1 5 5 1 1 0 1 1-2 0 3 3 0 0 0-3-3 1 1 0 0 1-1-1Z" clip-rule="evenodd"/><path fill="#AEDDFF" d="M23 3a1 1 0 1 0 0 2 4 4 0 0 1 4 4 1 1 0 1 0 2 0 6 6 0 0 0-6-6ZM11 22a1 1 0 1 0-2 0 2 2 0 0 1-2 2 1 1 0 1 0 0 2 4 4 0 0 0 4-4Z"/></svg>
